src/lib/packages/icons/src/assets/line/info-square.svg

<svg xmlns="http://www.w3.org/2000/svg" width="24" height="24" fill="none"><path fill="currentColor" d="M17.625 21.75H6.375c-2.66 0-4.125-1.465-4.125-4.125V6.375c0-2.66 1.465-4.125 4.125-4.125h11.25c2.66 0 4.125 1.465 4.125 4.125v11.25c0 2.66-1.465 4.125-4.125 4.125Zm-11.25-18c-1.84 0-2.625.785-2.625 2.625v11.25c0 1.84.785 2.625 2.625 2.625h11.25c1.84 0 2.625-.785 2.625-2.625V6.375c0-1.84-.785-2.625-2.625-2.625H6.375ZM12.75 16.5v-4.571a.75.75 0 0 0-1.5 0V16.5a.75.75 0 0 0 1.5 0Zm.27-8a1 1 0 0 0-1-1h-.01a.996.996 0 0 0-.995 1c0 .552.453 1 1.005 1a1 1 0 0 0 1-1Z"/></svg>

<svg width="24" height="24" viewBox="0 0 24 24" fill="none" xmlns="http://www.w3.org/2000/svg">
<path d="M17.625 21.75H6.375C3.715 21.75 2.25 20.285 2.25 17.625V6.375C2.25 3.715 3.715 2.25 6.375 2.25H17.625C20.285 2.25 21.75 3.715 21.75 6.375V17.625C21.75 20.285 20.285 21.75 17.625 21.75ZM6.375 3.75C4.535 3.75 3.75 4.535 3.75 6.375V17.625C3.75 19.465 4.535 20.25 6.375 20.25H17.625C19.465 20.25 20.25 19.465 20.25 17.625V6.375C20.25 4.535 19.465 3.75 17.625 3.75H6.375ZM12.75 16.5V11.929C12.75 11.515 12.414 11.179 12 11.179C11.586 11.179 11.25 11.515 11.25 11.929V16.5C11.25 16.914 11.586 17.25 12 17.25C12.414 17.25 12.75 16.914 12.75 16.5ZM13.02 8.5C13.02 7.948 12.573 7.5 12.02 7.5H12.01C11.458 7.5 11.0149 7.948 11.0149 8.5C11.0149 9.052 11.468 9.5 12.02 9.5C12.572 9.5 13.02 9.052 13.02 8.5Z" fill="currentColor"/>
</svg>
